assets/svg/minimize_video.svg

<svg fill="none" height="25" viewBox="0 0 25 25" width="25" xmlns="http://www.w3.org/2000/svg"><path clip-rule="evenodd" d="m8.75 8v-2.25c0-.41421.33579-.75.75-.75s.75.33579.75.75v2.25c0 1.24264-1.00736 2.25-2.25 2.25h-2.25c-.41421 0-.75-.33579-.75-.75s.33579-.75.75-.75h2.25c.41421 0 .75-.33579.75-.75zm8.25.75h2.25c.4142 0 .75.33579.75.75s-.3358.75-.75.75h-2.25c-1.2426 0-2.25-1.00736-2.25-2.25v-2.25c0-.41421.3358-.75.75-.75s.75.33579.75.75v2.25c0 .41421.3358.75.75.75zm-.75 10.5v-2.25c0-.4142.3358-.75.75-.75h2.25c.4142 0 .75-.3358.75-.75s-.3358-.75-.75-.75h-2.25c-1.2426 0-2.25 1.0074-2.25 2.25v2.25c0 .4142.3358.75.75.75s.75-.3358.75-.75zm-8.25-3h-2.25c-.41421 0-.75-.3358-.75-.75s.33579-.75.75-.75h2.25c1.24264 0 2.25 1.0074 2.25 2.25v2.25c0 .4142-.33579.75-.75.75s-.75-.3358-.75-.75v-2.25c0-.4142-.33579-.75-.75-.75z" fill="#fff" fill-rule="evenodd"/></svg>

<svg width="25" height="25" viewBox="0 0 25 25" fill="none" xmlns="http://www.w3.org/2000/svg">
<path fill-rule="evenodd" clip-rule="evenodd" d="M8.75 8V5.75C8.75 5.33579 9.08579 5 9.5 5C9.91421 5 10.25 5.33579 10.25 5.75V8C10.25 9.24264 9.24264 10.25 8 10.25H5.75C5.33579 10.25 5 9.91421 5 9.5C5 9.08579 5.33579 8.75 5.75 8.75H8C8.41421 8.75 8.75 8.41421 8.75 8ZM17 8.75H19.25C19.6642 8.75 20 9.08579 20 9.5C20 9.91421 19.6642 10.25 19.25 10.25H17C15.7574 10.25 14.75 9.24264 14.75 8V5.75C14.75 5.33579 15.0858 5 15.5 5C15.9142 5 16.25 5.33579 16.25 5.75V8C16.25 8.41421 16.5858 8.75 17 8.75ZM16.25 19.25V17C16.25 16.5858 16.5858 16.25 17 16.25H19.25C19.6642 16.25 20 15.9142 20 15.5C20 15.0858 19.6642 14.75 19.25 14.75H17C15.7574 14.75 14.75 15.7574 14.75 17V19.25C14.75 19.6642 15.0858 20 15.5 20C15.9142 20 16.25 19.6642 16.25 19.25ZM8 16.25H5.75C5.33579 16.25 5 15.9142 5 15.5C5 15.0858 5.33579 14.75 5.75 14.75H8C9.24264 14.75 10.25 15.7574 10.25 17V19.25C10.25 19.6642 9.91421 20 9.5 20C9.08579 20 8.75 19.6642 8.75 19.25V17C8.75 16.5858 8.41421 16.25 8 16.25Z" fill="white"/>
<mask id="mask0" mask-type="alpha" maskUnits="userSpaceOnUse" x="5" y="5" width="15" height="15">
<path fill-rule="evenodd" clip-rule="evenodd" d="M8.75 8V5.75C8.75 5.33579 9.08579 5 9.5 5C9.91421 5 10.25 5.33579 10.25 5.75V8C10.25 9.24264 9.24264 10.25 8 10.25H5.75C5.33579 10.25 5 9.91421 5 9.5C5 9.08579 5.33579 8.75 5.75 8.75H8C8.41421 8.75 8.75 8.41421 8.75 8ZM17 8.75H19.25C19.6642 8.75 20 9.08579 20 9.5C20 9.91421 19.6642 10.25 19.25 10.25H17C15.7574 10.25 14.75 9.24264 14.75 8V5.75C14.75 5.33579 15.0858 5 15.5 5C15.9142 5 16.25 5.33579 16.25 5.75V8C16.25 8.41421 16.5858 8.75 17 8.75ZM16.25 19.25V17C16.25 16.5858 16.5858 16.25 17 16.25H19.25C19.6642 16.25 20 15.9142 20 15.5C20 15.0858 19.6642 14.75 19.25 14.75H17C15.7574 14.75 14.75 15.7574 14.75 17V19.25C14.75 19.6642 15.0858 20 15.5 20C15.9142 20 16.25 19.6642 16.25 19.25ZM8 16.25H5.75C5.33579 16.25 5 15.9142 5 15.5C5 15.0858 5.33579 14.75 5.75 14.75H8C9.24264 14.75 10.25 15.7574 10.25 17V19.25C10.25 19.6642 9.91421 20 9.5 20C9.08579 20 8.75 19.6642 8.75 19.25V17C8.75 16.5858 8.41421 16.25 8 16.25Z" fill="white"/>
</mask>
<g mask="url(#mask0)">
</g>
</svg>
